Papirus/64x64/apps/half-life-deathmatch.svg

<svg width="64" height="64" version="1.1" xmlns="http://www.w3.org/2000/svg">
 <g transform="translate(4e-4)">
  <path d="m4.0507997 32.000415c-0.012 0.333995-0.050799 0.66199-0.050799 0.999985-3e-7 15.43178 12.56842 27.9996 27.999599 27.9996 15.431779 0 27.9996-12.56782 27.9996-27.9996 0-0.337995-0.038-0.66599-0.05-0.999985-0.533992 14.967786-12.855816 26.999614-27.9496 26.999614-15.093984 0-27.415608-12.031828-27.9496-26.999614z" style="opacity:.2"/>
  <path d="m31.9996 4.0008294c-15.431779 0-27.9996 12.568421-27.9996 27.9996 0 15.431779 12.568421 27.9996 27.9996 27.9996 15.431779 0 27.9996-12.567821 27.9996-27.9996 0-15.431179-12.567821-27.9996-27.9996-27.9996z" style="fill:#522f17"/>
  <path d="M 32,13 A 19.999714,19.999714 0 0 0 12,33 19.999714,19.999714 0 0 0 32,53 19.999714,19.999714 0 0 0 52,33 19.999714,19.999714 0 0 0 32,13 Z m -8,6 h 6.644531 l 8.935547,21.810547 4.671875,-1.876953 1.490235,3.71289 L 37.390625,46 V 45.998 L 37.384766,46 31.546875,31.767578 21.335938,47 18,44.992188 29.712891,27.292969 27.951172,23 H 24 Z" style="opacity:.2"/>
  <path d="M 32,12 A 19.999714,19.999714 0 0 0 12,32 19.999714,19.999714 0 0 0 32,52 19.999714,19.999714 0 0 0 52,32 19.999714,19.999714 0 0 0 32,12 Z m -8,6 h 6.644531 l 8.935547,21.810547 4.671875,-1.876953 1.490235,3.71289 L 37.390625,45 V 44.998 L 37.384766,45 31.546875,30.767578 21.335938,46 18,43.992188 29.712891,26.292969 27.951172,22 H 24 Z" style="fill:#a38976"/>
  <path d="m31.9996 4.0008294c-15.431779 0-27.9996 12.568421-27.9996 27.9996 0 0.337995 0.038799 0.66599 0.050799 0.999986 0.5327927-14.966786 12.854417-26.999614 27.949601-26.999614 15.093784 0 27.415608 12.032628 27.9496 26.999614 0.012-0.333996 0.05-0.661991 0.05-0.999986 0-15.431179-12.567821-27.9996-27.9996-27.9996z" style="fill:#ffffff;opacity:.1"/>
 </g>
</svg>

<svg xmlns="http://www.w3.org/2000/svg" width="64" height="64" version="1.1">
 <circle style="opacity:0.2" cx="32" cy="33" r="28"/>
 <circle style="fill:#522f17" cx="32" cy="32" r="28"/>
 <path style="opacity:0.1;fill:#ffffff" d="M 32 4 A 28 28 0 0 0 4 32 A 28 28 0 0 0 4.0352 32.5 A 28 28 0 0 1 32 5 A 28 28 0 0 1 59.982 32.252 A 28 28 0 0 0 60 32 A 28 28 0 0 0 32 4 z"/>
 <path style="opacity:0.1" d="M 32,11 A 22,22 0 0 0 10,33 22,22 0 0 0 32,55 22,22 0 0 0 54,33 22,22 0 0 0 32,11 Z M 24,19 H 30.641 L 39.58,40.811 44.25,38.93 45.74,42.65 37.391,46 H 37.381 L 31.551,31.77 21.34,47 18,44.99 29.711,27.289 27.949,23 H 24 Z"/>
 <path style="fill:#a38976" d="M 32 10 A 22 22 0 0 0 10 32 A 22 22 0 0 0 32 54 A 22 22 0 0 0 54 32 A 22 22 0 0 0 32 10 z M 24 18 L 30.641 18 L 39.58 39.811 L 44.25 37.93 L 45.74 41.65 L 37.391 45 L 37.381 45 L 31.551 30.77 L 21.34 46 L 18 43.99 L 29.711 26.289 L 27.949 22 L 24 22 L 24 18 z"/>
</svg>
